HTML/img/Component/The iPhone.svg

<?xml version="1.0" encoding="UTF-8" standalone="no"?>
<svg
   xmlns:dc="http://purl.org/dc/elements/1.1/"
   xmlns:cc="http://creativecommons.org/ns#"
   xmlns:rdf="http://www.w3.org/1999/02/22-rdf-syntax-ns#"
   xmlns:svg="http://www.w3.org/2000/svg"
   xmlns="http://www.w3.org/2000/svg"
   xmlns:sodipodi="http://sodipodi.sourceforge.net/DTD/sodipodi-0.dtd"
   xmlns:inkscape="http://www.inkscape.org/namespaces/inkscape"
   viewBox="0 0 348 348"
   fill="none"
   font-family="Arial"
   id="svg2"
   version="1.1"
   inkscape:version="0.91 r13725"
   sodipodi:docname="The iPhone.svg">
  <metadata
     id="metadata86">
    <rdf:RDF>
      <cc:Work
         rdf:about="">
        <dc:format>image/svg+xml</dc:format>
        <dc:type
           rdf:resource="http://purl.org/dc/dcmitype/StillImage" />
      </cc:Work>
    </rdf:RDF>
  </metadata>
  <defs
     id="defs84" />
  <sodipodi:namedview
     pagecolor="#ffffff"
     bordercolor="#666666"
     borderopacity="1"
     objecttolerance="10"
     gridtolerance="10"
     guidetolerance="10"
     inkscape:pageopacity="0"
     inkscape:pageshadow="2"
     inkscape:window-width="1440"
     inkscape:window-height="799"
     id="namedview82"
     showgrid="false"
     inkscape:zoom="0.67816092"
     inkscape:cx="169.41044"
     inkscape:cy="138.67278"
     inkscape:window-x="0"
     inkscape:window-y="1"
     inkscape:window-maximized="1"
     inkscape:current-layer="svg2" />
  <path
     d="M5 5.8h337v337.6H5z"
     stroke-width="2"
     stroke="#000"
     id="path4" />
  <path
     d="M282.7 40.6c0-8.4 7-15.2 15.6-15.2 4.1 0 8 1.6 11 4.4a15 15 0 0 1 4.6 10.8c0 8.3-7 15.1-15.6 15.1s-15.6-6.8-15.6-15.1z"
     stroke-width="2"
     stroke="#000"
     id="path6" />
  <path
     style="fill:#ffffff;fill-opacity:1;stroke:#000000;stroke-width:1.79724169;stroke-opacity:1"
     inkscape:connector-curvature="0"
     id="path4162"
     d="m 17.335309,184.42554 0,-151.783011 237.515951,0 0,304.021891 -237.515951,0 0,-152.23888 z" />
  <path
     d="m 59.27076,103.41361 0,-22.518211 41.71204,0 0,45.104061 -41.71204,0 0,-22.58585 z"
     id="path4172"
     inkscape:connector-curvature="0"
     style="fill:#ffffff;fill-opacity:1;stroke:#000000;stroke-width:1;stroke-miterlimit:4;stroke-dasharray:none;stroke-opacity:1" />
  <path
     style="fill:#ffffff;fill-opacity:1;stroke:#000000;stroke-width:1;stroke-miterlimit:4;stroke-dasharray:none;stroke-opacity:1"
     inkscape:connector-curvature="0"
     id="path4174"
     d="m 165.75858,103.41361 0,-22.518211 41.71203,0 0,45.104061 -41.71203,0 0,-22.58585 z" />
  <path
     style="fill:#ffffff;fill-opacity:1;stroke:#000000;stroke-width:1;stroke-miterlimit:4;stroke-dasharray:none;stroke-opacity:1"
     inkscape:connector-curvature="0"
     id="path4176"
     d="m 59.27076,188.86483 0,-22.51821 41.71204,0 0,45.10406 -41.71204,0 0,-22.58585 z" />
  <path
     d="m 165.75858,188.86483 0,-22.51821 41.71203,0 0,45.10406 -41.71203,0 0,-22.58585 z"
     id="path4178"
     inkscape:connector-curvature="0"
     style="fill:#ffffff;fill-opacity:1;stroke:#000000;stroke-width:1;stroke-miterlimit:4;stroke-dasharray:none;stroke-opacity:1" />
  <path
     style="fill:#ffffff;fill-opacity:1;stroke:#000000;stroke-width:1;stroke-miterlimit:4;stroke-dasharray:none;stroke-opacity:1"
     inkscape:connector-curvature="0"
     id="path4196"
     d="m 59.27076,272.14531 0,-22.51821 41.71204,0 0,45.10406 -41.71204,0 0,-22.58585 z" />
  <path
     d="m 165.75858,272.14531 0,-22.51821 41.71203,0 0,45.10406 -41.71203,0 0,-22.58585 z"
     id="path4198"
     inkscape:connector-curvature="0"
     style="fill:#ffffff;fill-opacity:1;stroke:#000000;stroke-width:1;stroke-miterlimit:4;stroke-dasharray:none;stroke-opacity:1" />
  <ellipse
     style="fill:none;fill-opacity:1;stroke:#000000;stroke-width:2.67195463;stroke-linejoin:miter;stroke-miterlimit:10;stroke-dasharray:none;stroke-opacity:1"
     id="path4181"
     cx="296.20731"
     cy="293.78049"
     rx="27.302813"
     ry="26.188412" />
  <path
     style="fill:#ffffff;fill-opacity:1;stroke:#000000;stroke-width:0.36675596;stroke-miterlimit:4;stroke-dasharray:none;stroke-opacity:1"
     inkscape:connector-curvature="0"
     id="path4199"
     d="m 288.87096,292.98468 0,-8.25869 15.29813,0 0,16.54218 -15.29813,0 0,-8.28349 z" />
</svg>

<svg xmlns="http://www.w3.org/2000/svg" fill="none" font-family="Arial" viewBox="0 0 348 348">
    <path stroke="#000" stroke-width="2" d="M5 5.8h337v337.6H5z"/>
    <path stroke="#000" stroke-width="2" d="M282.7 40.6c0-8.4 7-15.2 15.6-15.2 4.1 0 8 1.6 11 4.4a15 15 0 0 1 4.6 10.8c0 8.3-7 15.1-15.6 15.1s-15.6-6.8-15.6-15.1z"/>
    <path fill="#fff" stroke="#000" stroke-width="1.797" d="M17.335 184.426V32.643h237.516v304.021H17.335V184.426z"/>
    <path fill="#fff" stroke="#000" d="M59.27 103.414V80.895h41.713V126H59.27v-22.585z"/>
    <path fill="#fff" stroke="#000" d="M165.759 103.414V80.895h41.712V126h-41.712v-22.585z"/>
    <path fill="#fff" stroke="#000" d="M59.27 188.865v-22.518h41.713v45.104H59.27v-22.586z"/>
    <path fill="#fff" stroke="#000" d="M165.759 188.865v-22.518h41.712v45.104h-41.712v-22.586z"/>
    <path fill="#fff" stroke="#000" d="M59.27 272.145v-22.518h41.713v45.104H59.27v-22.586z"/>
    <path fill="#fff" stroke="#000" d="M165.759 272.145v-22.518h41.712v45.104h-41.712v-22.586z"/>
    <ellipse cx="296.207" cy="293.78" stroke="#000" stroke-miterlimit="10" stroke-width="2.672" rx="27.303" ry="26.188"/>
    <path fill="#fff" stroke="#000" stroke-width=".367" d="M288.871 292.985v-8.259h15.298v16.542h-15.298v-8.283z"/>
</svg>
